src/icons/lock.svg

<svg viewBox="0 0 18 18" fill="currentColor" xmlns="http://www.w3.org/2000/svg">
<path id="Vector" d="M5.99143 15.1C5.50286 15.1 5.13214 14.9693 4.87929 14.708C4.62643 14.4509 4.5 14.0632 4.5 13.5448V9.06237C4.5 8.54817 4.62643 8.16252 4.87929 7.90542C5.13214 7.64832 5.50286 7.51977 5.99143 7.51977H12.0086C12.4971 7.51977 12.8679 7.64832 13.1207 7.90542C13.3736 8.16252 13.5 8.54817 13.5 9.06237V13.5448C13.5 14.0632 13.3736 14.4509 13.1207 14.708C12.8679 14.9693 12.4971 15.1 12.0086 15.1H5.99143ZM6.17143 13.962H11.8286C11.9614 13.962 12.0643 13.922 12.1371 13.8419C12.21 13.766 12.2464 13.6522 12.2464 13.5005V9.11295C12.2464 8.96121 12.21 8.84742 12.1371 8.77155C12.0643 8.69569 11.9614 8.65775 11.8286 8.65775H6.17143C6.04286 8.65775 5.94 8.69569 5.86286 8.77155C5.79 8.84742 5.75357 8.96121 5.75357 9.11295V13.5005C5.75357 13.6522 5.79 13.766 5.86286 13.8419C5.94 13.922 6.04286 13.962 6.17143 13.962ZM5.67643 8.05083V6.04039C5.67643 5.26066 5.83071 4.60948 6.13929 4.08685C6.45214 3.56001 6.86143 3.16382 7.36714 2.89829C7.87286 2.63276 8.41714 2.5 9 2.5C9.58286 2.5 10.1271 2.63276 10.6329 2.89829C11.1386 3.16382 11.5457 3.56001 11.8543 4.08685C12.1671 4.60948 12.3236 5.26066 12.3236 6.04039V8.05083H11.1214V5.92659C11.1214 5.43347 11.0229 5.01831 10.8257 4.68113C10.6329 4.33974 10.3757 4.08053 10.0543 3.90351C9.73286 3.72649 9.38143 3.63798 9 3.63798C8.61857 3.63798 8.26714 3.72649 7.94571 3.90351C7.62429 4.08053 7.36714 4.33974 7.17429 4.68113C6.98143 5.01831 6.885 5.43347 6.885 5.92659V8.05083H5.67643Z" fill="currentColor"/>
</svg>

<svg viewBox="0 0 18 18" fill="currentColor" xmlns="http://www.w3.org/2000/svg"><path d="M5.991 15.1c-.488 0-.859-.13-1.112-.392-.253-.257-.379-.645-.379-1.163V9.062c0-.514.126-.9.38-1.157.252-.257.623-.385 1.111-.385h6.018c.488 0 .859.128 1.112.385.253.258.379.643.379 1.157v4.483c0 .518-.126.906-.38 1.163-.252.261-.623.392-1.111.392H5.99zm.18-1.138h5.658c.132 0 .235-.04.308-.12.073-.076.11-.19.11-.341V9.113c0-.152-.037-.266-.11-.341a.408.408 0 0 0-.308-.114H6.17a.421.421 0 0 0-.308.114c-.073.075-.11.19-.11.34v4.389c0 .151.037.265.11.34.077.081.18.121.308.121zm-.495-5.911V6.04c0-.78.155-1.432.463-1.954a3.083 3.083 0 0 1 1.228-1.189A3.46 3.46 0 0 1 9 2.5a3.46 3.46 0 0 1 1.633.398c.506.266.913.662 1.221 1.189.313.522.47 1.174.47 1.953v2.01H11.12V5.928c0-.494-.098-.909-.295-1.246a1.97 1.97 0 0 0-.772-.777A2.15 2.15 0 0 0 9 3.638a2.15 2.15 0 0 0-1.054.266 1.97 1.97 0 0 0-.772.777c-.193.337-.289.752-.289 1.246V8.05H5.676z"/></svg>
